!!!!SEGMENT: pl-kk--kk-i-371--002_anonim--antra-deserti-teneris-sub-annis.krn
!!!cenid: 17xx:2059
!!!COM: Anonim
!!!COM-rismID: pe30004985
!!!CDT:
!!!CNT:
!!!OTL: Antra deserti teneris sub annis
!!!PDT:
!!!AGN: Sacred
!!!SMS-siglum: PL-Kk
!!!SMS-shelfmark: Kk.I.371
!!!SMS-shelfwork: 002 W
!!!SMS-variant:
!!!SMS-altvar:
!!!NIFC-rismSourceID: 1001143610
!!!NIFC-islandoraID: pl-kk:6073
!!!URL-pdf-islandora: https://repozytorium.nifc.pl/islandora/object/pl-kk%3A6073/datastream/PDF/view
!!!URL-scan: https://polish.musicsources.pl/pl/lokalizacje/galeria/rekopisy/5984 @EN{Scan on Polish Music Sources Website} @PL{Skany w portalu Dziedzictwo Muzyki Polskiej w otwartym dostępie}
!!!ONB-nifc: UWAGA: utwory w zbiorze: 1. Illustre Sidus coelitus, 2. Antra deserti teneris sub annis, 3. Omni die dic Mariae
!!!AIN: 1 alto 1 empty 1 tenor 1 vox
!!!key:
**kern	**fba	**text	**text	**text	**text	**text	**kern	**text	**text	**text	**text	**text	**kern	**text	**text	**text	**text	**text	**kern	**text	**text	**text	**text	**text
*part4	*part4	*part4	*part4	*part4	*part4	*part4	*part3	*part3	*part3	*part3	*part3	*part3	*part2	*part2	*part2	*part2	*part2	*part2	*part1	*part1	*part1	*part1	*part1	*part1
*staff4	*	*staff4	*staff4	*staff4	*staff4	*staff4	*staff3	*staff3	*staff3	*staff3	*staff3	*staff3	*staff2	*staff2	*staff2	*staff2	*staff2	*staff2	*staff1	*staff1	*staff1	*staff1	*staff1	*staff1
*Iempty	*	*	*	*	*	*	*Itenor	*	*	*	*	*	*Ialto	*	*	*	*	*	*Ivox	*	*	*	*	*
*I"[Basso]	*	*	*	*	*	*	*I"[Tenore]	*	*	*	*	*	*I"alto	*	*	*	*	*	*I"[Canto]	*	*	*	*	*
*I'[B]	*	*	*	*	*	*	*I'[T]	*	*	*	*	*	*I'A	*	*	*	*	*	*I'[C]	*	*	*	*	*
*clefF4	*	*	*	*	*	*	*clefC4	*	*	*	*	*	*clefC3	*	*	*	*	*	*clefC1	*	*	*	*	*
*k[]	*	*	*	*	*	*	*k[]	*	*	*	*	*	*k[]	*	*	*	*	*	*k[]	*	*	*	*	*
*d:	*	*	*	*	*	*	*d:	*	*	*	*	*	*d:	*	*	*	*	*	*d:	*	*	*	*	*
*M3/2	*	*	*	*	*	*	*M3/2	*	*	*	*	*	*M3/2	*	*	*	*	*	*M3/2	*	*	*	*	*
=1	=1	=1	=1	=1	=1	=1	=1	=1	=1	=1	=1	=1	=1	=1	=1	=1	=1	=1	=1	=1	=1	=1	=1	=1
!	!	!	!	!	!	!	!	!	!	!	!	!	!LO:TX:t=P:problem=litera A duża przed kluczem, na początku pięciolinii	!	!	!	!	!	!	!	!	!	!	!
!	!	!	!	!	!	!	!	!	!	!	!	!	!LO:TX:t=P:problem=zapis ze zdjęcia 0005	!	!	!	!	!	!	!	!	!	!	!
!	!	!	!	!	!	!	!	!	!	!	!	!	!LO:TX:t=P::problem=kolejność skanów niewłaściwa&colon; najpierw sfotografowany tenor, potem alt.	!	!	!	!	!	!	!	!	!	!	!
!LO:TX:t=P:problem=litera A duża przed kluczem, na początku pięciolinii	!	!	!	!	!	!	!LO:TX:t=P:problem=zapis ze zdjęcia 0003	!	!	!	!	!	!LO:TX:a:i:t=De S(an)cto Joa Baptiſta.	!	!	!	!	!	!LO:TX:t=P:problem=litera A duża przed kluczem, na początku pięciolinii	!	!	!	!	!
!LO:TX:a:i:t=De S. Joanne Baptiſta.	!	!	!	!	!	!	!LO:TX:a:i:t=De S(an)cto Joanne Baptiſta	!	!	!	!	!	!LO:TX:a:i:t=alto	!	!	!	!	!	!LO:TX:a:i:t=De Sancto Joanne Baptiſta	!	!	!	!	!
2D/	.	An-	Pr(a)e-	Ca(e)-	Non	Sit	2A/	An-	Pr(a)e-	Ca(e)-	Non	Sit	2f\	An-	Pr(a)e-	Ca(e)-	Non	Sit	2dd\	An-	Pr(a)e-	C(a)e-	Non	Sit
2.C#X/	.	-tra	-bu-	-te-	fu-	de-	2.A/	-tra	-bu-	-te-	fu-	de-	2.e\	-tra	-bu-	-te-	fu-	de-	2.a\	-tra	-bu-	-te-	fu-	de-
4C#/	.	de-	-it	-ri	-it	-c(us)	4A/	de-	-it	-ri	-it	-c(us)	4e\	de-	-it	-ri	-it	-c(us)	4g/	de-	-it	-ri	-it	-c(us)
=2	=2	=2	=2	=2	=2	=2	=2	=2	=2	=2	=2	=2	=2	=2	=2	=2	=2	=2	=2	=2	=2	=2	=2	=2
(2.D/	.	-ſer-	di-	tan-	Vaſ-	Pa-	1A\	-ſer-	di-	tan-	Vaſ-	Pa-	1d\	-ſer-	di-	tan-	vaſ-	Pa-	1f/	-ſer-	di-	tan-	vaſ-	Pa-
4C/)	.	-ti	-v(um)	-tum	-ti	-tri	.	.	.	.	.	.	.	.	.	.	.	.	.	.	.	.	.	.
(4BB/	.	.	.	.	.	.	2B\	-ti	-vu(m)	-tu(m)	-ti	-tri	2d\	-ti	-vu(m)	-tu(m)	-ti	-tri	2d/	-ti,	-vu(m)	-tu(m)	-ti	-tri
4AA/)	.	.	.	.	.	.	.	.	.	.	.	.	.	.	.	.	.	.	.	.	.	.	.	.
=3	=3	=3	=3	=3	=3	=3	=3	=3	=3	=3	=3	=3	=3	=3	=3	=3	=3	=3	=3	=3	=3	=3	=3	=3
2.G\	.	te-	le-	c(a)e-	ſpa-	ge-	2.Bn\	te-	le-	c(a)e-	ſpa-	Ge-	2.d\	te-	le-	ce-	Spa-	ge-	2.b-X\	te-	le-	ce-	ſpa-	ge-
4F\	.	-ne-	-gu-	-ci-	-ti-	-ni-	4d\	-ne-	-gu-	-ci-	-ti-	-ni-	4d\	-ne-	-gu-	-ci-	-ti-	-ni-	4a\	-ne-	-gu-	-ci-	-ti-	-ni-
2E\	6	-ris	-men	-ne-	-u(m)	-t(ae)	2e\	-ris	-men	-ne-	-u(m)	-t(ae)	(4d\	-ris	-men	-ne-	-u(m)	-t(a)e	2g/	-ris	-men	-ne-	-u(m)	-t(a)e
!	!	!	!	!	!	!	!	!	!	!	!	!	!LO:TX:t=P:problem=# above	!	!	!	!	!	!	!	!	!	!	!
.	.	.	.	.	.	.	.	.	.	.	.	.	4c#X\)	.	.	.	.	.	.	.	.	.	.	.
=4	=4	=4	=4	=4	=4	=4	=4	=4	=4	=4	=4	=4	=4	=4	=4	=4	=4	=4	=4	=4	=4	=4	=4	=4
2D/	.	ſub	Ca-	-re	per	q(uae)	2A/	ſub	Ca-	-re	per	q(uae)	2d\	.	Ca-	-re	per	q(uae)	2f/	ſub	Ca-	-re	per	q(uae)
!	!	!	!	!	!	!	!LO:SIC:o:s:v=bemol na wysokości d	!	!	!	!	!	!	!	!	!	!	!	!	!	!	!	!	!
2GG/	6 5	an-	-ne-	Va-	or-	pro-	2B-X\	an-	-me-	Va-	or-	pro-	2d\	ſub	-me-	Va-	or-	pro-	1e/	an-	-me-	Va-	or-	pro-
2AA/	#	.	.	.	.	.	2A/	.	.	.	.	.	2c#X/	an-	.	-tu(m)	.	.	.	.	.	.	.	.
=5	=5	=5	=5	=5	=5	=5	=5	=5	=5	=5	=5	=5	=5	=5	=5	=5	=5	=5	=5	=5	=5	=5	=5	=5
1.D\	.	-nis	-l(us)	-t(um)	-biſ	-li	1.A\	-nis	-l(us)	-tum	-bis	-li	1.d\	-nis	-l(us)	.	-bis	-li	1.d/	-nis,	-l(us)	-tu(m)	-bis	-li
=6	=6	=6	=6	=6	=6	=6	=6	=6	=6	=6	=6	=6	=6	=6	=6	=6	=6	=6	=6	=6	=6	=6	=6	=6
!	!	!	!	!	!	!	!	!	!	!	!	!	!LO:TX:t=P:problem=# above	!	!	!	!	!	!	!	!	!	!	!
2.D/	.	ci-	ar-	cor-	Sanc-	et	2.d\	Ci-	ar-	cor-	ſanc-	et	2.f#X\	Ci-	ar-	Cor-	Sanc-	et	2.a\	Ci-	ar-	cor-	ſan-	ex
4D/	.	-vi-	-tu-	-de	-ti-	ti-	4d\	-vi-	-tu-	-de	-ti-	Ti-	4f#\	-vi-	-tu-	-de	-ti-	Ti-	4a\	-vi-	-tu-	-de	-cti-	ti-
2BBn/	6\	-u(m)	-b(us)	pra(e)-	-or	-bi	2d\	-u(m)	-b(us)	pra(e)-	-or	-bi	2g#X\	-u(m)	-b(us)	prae-	-or	-bi	2bn\	-u(m)	-b(us)	pr(a)e-	-or	-bi
=7	=7	=7	=7	=7	=7	=7	=7	=7	=7	=7	=7	=7	=7	=7	=7	=7	=7	=7	=7	=7	=7	=7	=7	=7
2AA/	.	tur-	ſa-	-ſa-	quis	com-	1e\	tur-	ſa-	-ſa-	quis	Com-	1a\	tur-	Sa-	-ſa-	quis	com-	1cc\	tur-	ſa-	-ſa-	quis-	Com-
4A\	.	-maſ	-criſ	-go	qua(m)	-par	.	.	.	.	.	.	.	.	.	.	.	.	.	.	.	.	.	.
4G\	.	.	.	.	.	.	.	.	.	.	.	.	.	.	.	.	.	.	.	.	.	.	.	.
4F\	.	.	.	.	.	.	2e\	-maſ	-criſ	-go	qua(m)	-par	2a\	-maſ	-cris	-go	qua(m)	-par	2cc\	-maſ	-criſ	-go	-qu(am)	-par
4E\	.	.	.	.	.	.	.	.	.	.	.	.	.	.	.	.	.	.	.	.	.	.	.	.
=8	=8	=8	=8	=8	=8	=8	=8	=8	=8	=8	=8	=8	=8	=8	=8	=8	=8	=8	=8	=8	=8	=8	=8	=8
2.D/	.	fu-	ſtro-	iu-	ge-	u-	2.A/	fu-	ſtro-	iu-	ge-	U-	2.a\	fu-	Stro-	iu-	ge-	U-	2.ff\	fu-	ſtro-	iu-	ge-	u-
4D/	.	-gi-	-phi-	-bar	-ni-	-tri-	4A\	-gi-	-phi-	.	-ni-	-tri-	4a\	-gi-	-phi-	-bar	-nit-	-tri-	4ee\	-gi-	-phi-	-bar	-ni-	-tri-
2BB/	6\	-enſ	-u(m)	.	-t(us)	-us-	2B\	-enſ	-u(m)	-bar	-t(us)	-uſ-	(4a\	-e	-u(m)	ad	-(us)	-us-	2dd\	-enſ	-u(m)	ad-	-t(us)	-(us)-
!	!	!	!	!	!	!	!	!	!	!	!	!	!LO:TX:a:t=P:problem=# above	!	!	!	!	!	!	!	!	!	!	!
.	.	.	.	.	.	.	.	.	.	.	.	.	4g#\)	.	.	.	.	q(ue) V	.	.	.	.	.	.
=9	=9	=9	=9	=9	=9	=9	=9	=9	=9	=9	=9	=9	=9	=9	=9	=9	=9	=9	=9	=9	=9	=9	=9	=9
2AA/	.	pe-	bi-	af-	Io-	-q(ue)	2c\	pe-	bi-	af-	Io-	-que	2a\	Ne	reſ	Tu	qui	ſpi-	2cc\	pe-	bi-	-fu-	Io-	-q(ue)
2D/	6 5	-ti-	-den-	-fu-	-an-	Vir-	2f\	-ti-	-de-	-fu-	-an-	Vir-	2.f\	le-	Cu-	qui-	.	-ri-	1bn\	-ti-	-de-	-tu-	-an-	Vir-
2E\	#	.	.	-tu-	.	.	2e\	.	.	-tu-	.	.	.	.	.	.	.	.	.	.	.	.	.	.
.	.	.	.	.	.	.	.	.	.	.	.	.	4d\	-vi	-i	.	.	-t(us)	.	.	.	.	.	.
=10	=10	=10	=10	=10	=10	=10	=10	=10	=10	=10	=10	=10	=10	=10	=10	=10	=10	=10	=10-	=10	=10	=10	=10	=10
1.AA/	.	-ſti	-tes	-ru(m)	-ne	-t(us)	1.e\	-ſti	-res	-ru(m)	-ne	-t(us)	1g\	poſ-	la-	-dem	ne-	Sem-	1.a\	-ſti,	-reſ	-ru(m)	-ne	-t(us)
.	.	.	.	.	.	.	.	.	.	.	.	.	2g\	-ſes	-tex	.	-fas	-per	.	.	.	.	.	.
=11	=11	=11	=11	=11	=11	=11	=11	=11	=11	=11	=11	=11	=11	=11	=11	=11	=11	=11	=11	=11	=11	=11	=11	=11
2F\	.	ne	Cu-	tu	qui	Spi-	2.A/	Ne	Cu-	tu	qui	Spi-	2.e\	.	hauſ-	Mun-	ſ(a)e-	De-	2.cc\	Ne	cu-	tu	qui	ſpi-
2F\	.	le-	-i	qui-	ne-	-ri-	.	.	.	.	.	.	.	.	.	.	.	.	.	.	.	.	.	.
.	.	.	.	.	.	.	4A/	le-	-i	qui-	ne-	-ri-	4e\	ma-	-tu(m)	-di	-cli	.	4cc\	le-	-i	qui-	ne-	-ri-
!	!	!	!	!	!	!	!	!	!	!	!	!	!LO:TX:t=P:problem=# above	!	!	!	!	!	!	!	!	!	!	!
2D\	6\	-vi	la-	-de(m)	-fas	-t(us)	2B\	-vi	la-	-dem	-fas	-t(us)	2f#X\	-cu-	ſo-	ſcel-	me-	-(us)	2dd\	-vi	la-	-dem	-fas	-t(us)
=12	=12	=12	=12	=12	=12	=12	=12	=12	=12	=12	=12	=12	=12	=12	=12	=12	=12	=12	=12	=12	=12	=12	=12	=12
1C/	.	poſ-	-tex	Mun-	ſe-	Sem-	1c\	poſ-	-tex	Mun-	ſe-	ſem-	2g\	-la-	-cia-	-l(us)	-ru-	U-	1ee\	poſ-	-tex	mun-	ſ(a)e-	ſem-
.	.	.	.	.	.	.	.	.	.	.	.	.	2g\	-re	-ta	au-	-it	-n(us)	.	.	.	.	.	.
2C/	.	-teſ	hauſ-	-di	-cli	-per	2c\	-ses	hauſ-	-di	-cli	-per	2f#X\	Vi-	paſ-	-fe-	la-	om-	2ee\	-tes	hau-	-di	-cli	-per
=13	=13	=13	=13	=13	=13	=13	=13	=13	=13	=13	=13	=13	=13	=13	=13	=13	=13	=13	=13	=13	=13	=13	=13	=13
2.C/	.	ma-	-tu(m)	ſce-	me-	De-	2.c\	ma-	-tu(m)	ſce-	me-	De-	1.g\	-ta	-tu(m)	-ren-	-van-	-ni	2.g/	ma-	-ſtu(m)	ſce-	me-	De-
4C/	.	-cu-	ſo-	-l(us)	-ru-	-(us)	4c\	-cu-	ſo-	-l(us)	-ru-	-(us)	.	.	.	.	.	.	4g/	-cu-	ſo-	-l(us)	-ru-	-(us)
2AA/	6\	-la-	-ci-	au-	-it	U-	2c\	-la-	-ci-	au-	-it	U-	.	.	.	.	.	.	2a\	-la-	-cia-	au-	-it	U-
=14	=14	=14	=14	=14	=14	=14	=14	=14	=14	=14	=14	=14	=14	=14	=14	=14	=14	=14	=14	=14	=14	=14	=14	=14
2GG/	.	-re	-a-	-fe-	la-	-n(us)	2d\	-re	-a-	-fe-	la-	-n(us)	2.f\	Cri-	mel-	-te(m)	-tem	tem-	2b-X\	-re	-ta	-fe-	la-	-n(us)
2C/	.	Vi-	-ta	-ren-	-van-	om-	2e\	Vi-	-ta	.	-van-	om-	.	.	.	.	.	.	1a\	Vi-	paſ-	-ren-	-van-	om-
.	.	.	.	.	.	.	.	.	.	.	.	.	4e\	-mi-	.	in-	tin-	-po-	.	.	.	.	.	.
2D/	.	.	paſ-	.	.	-ni	2d\	.	paſ-	-ren-	.	.	2d\	-ne	-la	-di-	-ge-	-ris	.	.	.	.	.	.
=15	=15	=15	=15	=15	=15	=15	=15	=15	=15	=15	=15	=15	=15	=15	=15	=15	=15	=15	=15	=15	=15	=15	=15	=15
*	*	*	*	*	*	*	*	*	*	*	*	*	*	*ij	*ij	*	*	*ij	*	*	*	*	*	*
1.GG/	.	-ta(m)	-tu(m)	-te(m)	-te(m)	.	1.d\	-ta(m)	-tu(m)	-te(m)	-te(m)	-ni	2.d\	cri-	mel-	-ce	-re	tem-	1.g\	-ta(m)	-tu(m)	-te(m)	-tem	-ni
*	*	*	*	*	*	*	*	*	*	*	*	*	*	*	*	*ij	*ij	*	*	*	*	*	*	*
.	.	.	.	.	.	.	.	.	.	.	.	.	4d\	-mi-	.	in-	tin-	-po-	.	.	.	.	.	.
.	.	.	.	.	.	.	.	.	.	.	.	.	(4d\	-ne	-la	-di-	-ge-	-ris	.	.	.	.	.	.
*	*	*	*	*	*	*	*	*	*	*	*	*	*	*Xij	*Xij	*	*	*Xij	*	*	*	*	*	*
.	.	.	.	.	.	.	.	.	.	.	.	.	4c\)	.	.	.	.	.	.	.	.	.	.	.
=16	=16	=16	=16	=16	=16	=16	=16	=16	=16	=16	=16	=16	=16	=16	=16	=16	=16	=16	=16	=16	=16	=16	=16	=16
2.D/	.	cri-	nel-	in-	tin-	tem-	2.d\	Cri-	mel-	in-	tin-	tem-	1d\	Lin-	lo-	-ce	-re	(a)e-	2.a\	cri-	mel-	in-	tin-	tem-
*	*	*	*	*	*	*	*	*	*	*	*	*	*	*	*	*Xij	*Xij	*	*	*	*	*	*	*
4D/	.	.	.	-di-	-ge-	-po-	4d\	-mi-	.	-di-	-ge-	-po-	.	.	.	.	.	.	4g/	-mi-	.	-di-	-ge-	-po-
!	!	!	!	!	!	!	!	!	!	!	!	!	!LO:TX:t=P:problem=# above	!	!	!	!	!	!	!	!	!	!	!
(4D/	.	-mi-	-la	-ce	-re	-ris	2A\	-ne	-la	-ce	-re	-ris	2c#X/	-gu-	-cuſ-	pro-	lym-	.	2f/	-ne	-la	-ce	-re	-riſ
4C/)	.	.	.	.	.	.	.	.	.	.	.	.	.	.	.	.	.	.	.	.	.	.	.	.
=17	=17	=17	=17	=17	=17	=17	=17	=17	=17	=17	=17	=17	=17	=17	=17	=17	=17	=17	=17	=17	=17	=17	=17	=17
*	*	*	*	*	*	*	*	*ij	*ij	*ij	*ij	*ij	*	*	*	*	*	*	*	*ij	*ij	*	*	*ij
(4BB/	.	-ne	.	.	.	.	4d\	cri-	mel-	in-	tin-	tem-	1.d\	-(a)e	-tiſ	.	.	.	2.b-X\	cri-	mel-	in-	.	tem-
4AA/)	.	.	.	.	.	.	4c\	.	.	.	.	.	.	.	.	.	.	.	.	.	.	.	.	.
4G\	.	.	.	pro	lym-	a(e)-	4B\	-mi-	.	-di-	-ge-	-po-	.	.	.	.	.	.	.	.	.	.	.	.
4F\	.	.	.	.	.	.	8c\L	.	.	.	.	.	.	.	.	.	.	.	4a\	-mi-	.	-di-	.	-po-
.	.	.	.	.	.	.	8d\J	.	.	.	.	.	.	.	.	.	.	.	.	.	.	.	.	.
2E\	.	.	lo-	.	.	.	2e\	-ne	-la	-ce	-re	-ris	.	.	.	.	.	.	2g/	-ne	-la	-ce	.	-riſ
*	*	*	*	*	*	*	*	*Xij	*Xij	*Xij	*Xij	*Xij	*	*	*	*	*	*	*	*Xij	*Xij	*	*	*Xij
=18	=18	=18	=18	=18	=18	=18	=18	=18	=18	=18	=18	=18	=18	=18	=18	=18	=18	=18	=18	=18	=18	=18	=18	=18
2D/	.	lin-	-cuſ-	.	.	-uo	2A/	lin-	lo-	pro-	lym-	(a)e-	0.c\	.	.	-dis	-phis	-uo.	2f/	lin-	lo-	pro-	lym-	(a)e-
2GG/	6 5	.	.	.	-phis	.	2B-X\	.	-cuſ-	.	.	.	.	.	.	.	.	.	1e/	.	-cuſ-	.	.	-vo.
2AA/	#	.	-tis	dis	.	.	2A\	.	.	.	.	.	.	.	.	.	.	.	.	.	.	.	.	.
=19	=19	=19	=19	=19	=19	=19	=19	=19	=19	=19	=19	=19	=19	=19	=19	=19	=19	=19	=19	=19	=19	=19	=19	=19
1.D\;;	.	-gu(a)e	.	.	.	.	1.A\;;	-gua(e)	-tis	-dis	-phis	-vo.	.	.	.	.	.	.	1.d/	-gu(a)e	-tis.	-dis.	-phis.	.
==	==	==	==	==	==	==	==	==	==	==	==	==	==	==	==	==	==	==	==	==	==	==	==	==
*-	*-	*-	*-	*-	*-	*-	*-	*-	*-	*-	*-	*-	*-	*-	*-	*-	*-	*-	*-	*-	*-	*-	*-	*-
!!!system-decoration: [(s1,s2,s3,s4)]
!!!EED: Leszek Kubiak
!!!EEV: 2021-02-27
!!!ENC: Mateusz Solarz
!!!END: 2021-02-18
!!!YEC: Copyright 2022 Narodowy Instytut Fryderyka Chopina (https://polishscores.org)
!!!YEM: Licence CC BY 4.0 (https://creativecommons.org/licenses/by/4.0)
